!!!COM: Carl Czerny
!!!OTL: Marsch in d for String Quartet
!!!system-decoration: (s1,s2,s3,s4)
**kern	**kern	**kern	**kern	**dynam	**kern	**kern	**kern	**kern	**dynam	**kern	**kern	**kern	**kern	**dynam	**kern	**kern	**kern	**kern	**dynam
*part4	*part4	*part4	*part4	*part4	*part3	*part3	*part3	*part3	*part3	*part2	*part2	*part2	*part2	*part2	*part1	*part1	*part1	*part1	*part1
*staff16	*staff15	*staff14	*staff13	*	*staff12	*staff11	*staff10	*staff9	*	*staff8	*staff7	*staff6	*staff5	*	*staff4	*staff3	*staff2	*staff1	*
*I'Vc.	*	*	*	*	*I'Vla.	*	*	*	*	*I'Vln. II	*	*	*	*	*I'Vln. I	*	*	*	*
*I"Cello	*	*	*	*	*I"Viola	*	*	*	*	*I"Violin II	*	*	*	*	*I"Violin I	*	*	*	*
*clefF4	*	*clefC3	*	*clefG2	*	*clefG2	*
*k[b-]	*	*k[b-]	*	*k[b-]	*	*k[b-]	*
*M4/4	*	*M4/4	*	*M4/4	*	*M4/4	*
!	!	!	!	!	!	!LO:TX:a:i:t=Marziale	!
8.dL	mf	8.fL	mf	8.aL	mf	8.ddL	mf
16DJ	.	16dJ	.	16fJ	.	16aJ	.
8.dL	.	8.fL	.	8.aL	.	8.ddL	.
16DJ	.	16dJ	.	16fJ	.	16aJ	.
8.dL	.	8.fL	.	8.aL	.	8.ddL	.
16DJ	.	16dJ	.	16fJ	.	16aJ	.
8.dL	.	8.fL	.	8.aL	.	8.ddL	.
16dJ	.	16aJ	.	16ddJ	.	16ffJ	.
=2	=2	=2	=2	=2	=2	=2	=2
8.AL	.	8.aL	.	8.cc#L	.	8.eeL	.
16AAJ	.	16eJ	.	16aJ	.	16cc#J	.
8.AL	.	8.c#L	.	8.eL	.	8.aL	.
16AAJ	.	16eJ	.	16aJ	.	16cc#yJ	.
8A	.	8a	.	8cc#y	.	8ee	.
8r	.	8r	.	8r	.	8r	.
4r	.	4r	.	16fL	.	16aL	.
.	.	.	.	16g	.	16bn	.
.	.	.	.	16a	.	16cc#y	.
.	.	.	.	16bnJ)	.	16ddJ)	.
=3	=3	=3	=3	=3	=3	=3	=3
8.AL	.	8.aL	.	8.cc#L	.	8.eeL	.
16AAJ	.	16c#J	.	16eJ	.	16aJ	.
8.AL	.	8.aL	.	8.cc#yL	.	8.eeL	.
16AAJ	.	16c#yJ	.	16eJ	.	16aJ	.
8.AL	.	8.aL	.	8.cc#yL	.	8.eeL	.
16AAJ	.	16c#yJ	.	16eJ	.	16aJ	.
8.AL	.	8.aL	.	8.cc#yL	.	8.eeL	.
16AJ	.	16cc#J	.	16eeJ	.	16ggJ	.
!!LO:LB
=4	=4	=4	=4	=4	=4	=4	=4
8.dL	.	8.aL	f	8.ddL	f	8.ffL	f
16DJ	.	16fJ	.	16aJ	.	16ddJ	.
8.dL	.	8.dL	.	8.fL	.	8.aL	.
16DJ	.	16fJ	.	16aJ	.	16ddJ	.
8d	.	8a	.	8dd	.	8ff	.
8r	.	8r	.	8r	.	8r	.
4r	.	4a	.	16ffL	.	16dddL	.
.	.	.	.	16ee	.	16ccc#	.
.	.	.	.	16ff	.	16ddd	.
.	.	.	.	16eeJ)	.	16cccnJ)	.
=5	=5	=5	=5	=5	=5	=5	=5
8.GGL	.	8.GL	.	2gg	.	2bb-y	.
16AAJ	.	16AJ	.	.	.	.	.
8.BB-yL	.	8.B-yL	.	.	.	.	.
16CJ	.	16cJ	.	.	.	.	.
8D	.	8d	.	8ff)	.	8aa)	.
8r	.	8r	.	8r	.	8r	.
4r	.	4r	.	16ffL	.	16dddL	.
.	.	.	.	16ee	.	16ccc#	.
.	.	.	.	16ff	.	16ddd	.
.	.	.	.	16eeJ)	.	16cccnJ)	.
=6	=6	=6	=6	=6	=6	=6	=6
16GGL	.	16GL	.	2gg	.	2bb-y	.
16FF	.	16F	.	.	.	.	.
16GG	.	16G	.	.	.	.	.
16AAJ	.	16AJ	.	.	.	.	.
16BB-yL	.	16B-yL	.	.	.	.	.
16AA	.	16A	.	.	.	.	.
16BB-y	.	16B-y	.	.	.	.	.
16CJ	.	16cJ	.	.	.	.	.
8D	.	8d	.	8ff)	.	8aa)	.
8r	.	8r	.	8r	.	8r	.
4r	.	4r	.	16ggL	.	16bb-yL	.
.	.	.	.	16ff	.	16aa	.
.	.	.	.	16gg	.	16bb-y	.
.	.	.	.	16ffJ)	.	16aaJ)	.
!!LO:LB
=7	=7	=7	=7	=7	=7	=7	=7
8.c#L	.	8.aL	.	8.eeL	.	8.ggL	.
16AJ	.	16aJ	.	16cc#J	.	16eeJ	.
8.AL	.	8.aL	.	8.cc#yL	.	8.aaL	.
16c#yJ	.	16aJ	.	16eeJ	.	16ggJ	.
8.dL	.	8.aL	.	8.ddL	.	8.ffL	.
16dJ	.	16fJ	.	16aJ	.	16ddJ	.
8.c#yL	.	8.eL	.	8.aL	.	8.ggL	.
16dJ	.	16aJ	.	16ddJ	.	16ffJ	.
=8	=8	=8	=8	=8	=8	=8	=8
8A	.	8a	.	8cc#	.	8ee	.
8r	.	8r	.	8r	.	8r	.
16EL	.	16eL	.	16eL	.	16eL	.
16C#	.	16c#	.	16c#	.	16c#	.
16E	.	16e	.	16e	.	16e	.
16C#yJ	.	16c#yJ	.	16c#yJ	.	16c#yJ	.
8AA)	.	8A)	.	8A)	.	8A)	.
8r	.	8r	.	8r	.	8r	.
4r	.	4r	.	4r	.	4r	.
=9	=9	=9	=9	=9	=9	=9	=9
4A	.	4e	.	4r	.	8aL	.
.	.	.	.	.	.	16r	.
.	.	.	.	.	.	16aJ	.
4B-y	.	4r	.	2ee	.	8b-yL)	.
.	.	.	.	.	.	16r	.
.	.	.	.	.	.	16b-yJ	.
4A	.	4r	.	.	.	8aL)	.
.	.	.	.	.	.	16r	.
.	.	.	.	.	.	16aJ	.
4G#	.	4e	.	4r	.	8g#L)	.
.	.	.	.	.	.	16r	.
.	.	.	.	.	.	16g#yJ	.
=10	=10	=10	=10	=10	=10	=10	=10
4A	.	4e]	.	4r	.	8aL)	.
.	.	.	.	.	.	16r	.
.	.	.	.	.	.	16aJ	.
4E	.	4r	.	2ee	.	8eL)	.
.	.	.	.	.	.	16r	.
.	.	.	.	.	.	16eJ	.
4C#	.	4r	.	.	.	8c#L)	.
.	.	.	.	.	.	16r	.
.	.	.	.	.	.	16c#yJ	.
4AA	.	4e	.	4r	.	8AL)	.
.	.	.	.	.	.	16r	.
.	.	.	.	.	.	16AJ	.
=11	=11	=11	=11	=11	=11	=11	=11
4D	.	8AL	.	1aa	.	8dL)	.
.	.	16r	.	.	.	16r	.
.	.	16AJ	.	.	.	16dJ	.
4AA	.	8FL)	.	.	.	8AL)	.
.	.	16r	.	.	.	16r	.
.	.	16FJ	.	.	.	16AJ	.
4D	.	8AL)	.	.	.	8dL)	.
.	.	16r	.	.	.	16r	.
.	.	16AJ	.	.	.	16dJ	.
4F	.	8dL)	.	.	.	8fL)	.
.	.	16r	.	.	.	16r	.
.	.	16dJ	.	.	.	16fJ	.
=12	=12	=12	=12	=12	=12	=12	=12
4E	.	8c#L)	.	8aaL]	.	8eL)	.
.	.	16r	.	16r	.	16r	.
.	.	16c#yJ	.	16aaJ	.	16eJ	.
4C#	.	8AL)	.	8aaL	.	8c#L)	.
.	.	16r	.	16r	.	16r	.
.	.	16AJ	.	16aaJ	.	16c#yJ	.
8AA	.	8A	.	8a)	.	8A)	.
8r	.	8r	.	8r	.	8r	.
4r	.	4r	.	16aL	.	16aaL	.
.	.	.	.	16b-y	.	16gg	.
.	.	.	.	16a	.	16ff	.
.	.	.	.	16gJ)	.	16eeJ)	.
!!LO:LB
=13	=13	=13	=13	=13	=13	=13	=13
8.dL	.	8.fL	.	8.aL	.	8.ddL	.
16AJ	.	16aJ	.	16cc#J	.	16eeJ	.
8.AAL	.	8.aL	.	8.ddL	.	8.ffL	.
16AAJ	.	16aJ	.	16eeJ	.	16ggJ	.
8A	.	8e	.	8cc#y	.	8aa	.
8r	.	8r	.	8r	.	8r	.
4r	.	4r	.	16b-yL	.	16bb-yL	.
.	.	.	.	16ccn	.	16aa	.
.	.	.	.	16b-y	.	16gg	.
.	.	.	.	16aJ)	.	16ffJ)	.
=14	=14	=14	=14	=14	=14	=14	=14
8.EL	.	8.gL	.	8.b-yL	.	8.eeL	.
16DJ	.	16fJ	.	16ddJ	.	16ffJ	.
8.GL	.	8.b-yL	.	8.eeL	.	8.ggL	.
16GJ	.	16ccJ	.	16eeJ	.	16aaJ	.
8E	.	8b-y	.	8gg	.	8bb-y	.
8r	.	8r	.	8r	.	8r	.
16GL	.	4r	.	16eeL	.	16eeeL	.
16A	.	.	.	16ff	.	16ddd	.
16B-y	.	.	.	16ee	.	16ccc#	.
16c#J)	.	.	.	16ddJ)	.	16bb-yJ	.
!!LO:LB
=15	=15	=15	=15	=15	=15	=15	=15
8dL	.	16aL	.	16ffL	.	8aa)	.
.	.	16g	.	16ee	.	.	.
16r	.	16b-y	.	16gg	.	8r	.
16DJ	.	16aJ	.	16ffJ	.	.	.
8dL	.	8f	.	8dd)	.	16bb-yL	.
.	.	.	.	.	.	16aa	.
16r	.	8r	.	8r	.	16gg	.
16DJ	.	.	.	.	.	16ffJ	.
8AL	.	16aL	.	16cc#L	.	8ee)	.
.	.	16e	.	16a	.	.	.
16r	.	16g	.	16ee	.	8r	.
16AAJ	.	16fJ	.	16ddJ	.	.	.
8AL	.	8e	.	8cc#y)	.	16aaL	.
.	.	.	.	.	.	16gg	.
16r	.	8r	.	8r	.	16ff	.
16AAJ	.	.	.	.	.	16eeJ	.
=16	=16	=16	=16	=16	=16	=16	=16
8D	.	8f	.	8a	.	8dd)	.
8r	.	8r	.	8r	.	8r	.
16AL	.	16aL	.	16aL	.	16aL	.
16F	.	16f	.	16f	.	16f	.
16A	.	16a	.	16a	.	16a	.
16FJ	.	16fJ	.	16fJ	.	16fJ	.
8D)	.	8d)	.	8d)	.	8d)	.
8r	.	8r	.	8r	.	8r	.
4r	.	4r	.	4r	.	4r	.
=:|!	=:|!	=:|!	=:|!	=:|!	=:|!	=:|!	=:|!
*-	*-	*-	*-	*-	*-	*-	*-
